packages/design-assets/icons/16px/Zoom Out.svg

<?xml version="1.0" encoding="UTF-8"?>
<svg width="16px" height="16px" viewBox="0 0 16 16" version="1.1" xmlns="http://www.w3.org/2000/svg" xmlns:xlink="http://www.w3.org/1999/xlink">
    <!-- Generator: Sketch 54.1 (76490) - https://sketchapp.com -->
    <title>Icons/16px/Zoom Out</title>
    <desc>Created with Sketch.</desc>
    <g id="Icons/16px/Zoom-Out" stroke="none" stroke-width="1" fill="none" fill-rule="evenodd">
        <path d="M13,11 L16,14 C16.1,14.7080745 16.1,15.3043478 16,16 C15.5,15.9006211 15.2,16 15,16 C14.8,16 14.5,15.9006211 14,16 L11,13 C10.2,13.6149068 8.7,14.1118012 7,14 C3.2,14.1118012 0,10.931677 0,7 C0,3.18012422 3.2,0 7,0 C11,0 14.1,3.18012422 14,7 C14.1,8.64596273 13.6,10.0372671 13,11 Z M7,12 C9.74509804,12 12,9.82178218 12,7 C12,4.27722772 9.74509804,2 7,2 C4.25490196,2 2,4.27722772 2,7 C2,9.82178218 4.25490196,12 7,12 Z M4,6 L10,6 L10,8 L4,8 L4,6 Z" id="i-16-zoom-out" fill="#818F99"></path>
    </g>
</svg>

<svg width="16" height="16" xmlns="http://www.w3.org/2000/svg"><path d="M13 11l3 3c.1.708.1 1.304 0 2-.5-.1-.8 0-1 0-.2 0-.5-.1-1 0l-3-3c-.8.615-2.3 1.112-4 1-3.8.112-7-3.068-7-7 0-3.82 3.2-7 7-7 4 0 7.1 3.18 7 7 .1 1.646-.4 3.037-1 4zm-6 1c2.745 0 5-2.178 5-5 0-2.723-2.255-5-5-5S2 4.277 2 7c0 2.822 2.255 5 5 5zM4 6h6v2H4V6z" fill="#818F99" fill-rule="evenodd"/></svg>
